svgs/duotone/cauldron.svg

<svg xmlns="http://www.w3.org/2000/svg" viewBox="0 0 448 512"><!--! Font Awesome Pro 6.6.0 by @fontawesome - https://fontawesome.com License - https://fontawesome.com/license (Commercial License) Copyright 2024 Fonticons, Inc. --><defs><style>.fa-secondary{opacity:.4}</style></defs><path class="fa-secondary" d="M96 160l0 128c0 17.7 14.3 32 32 32s32-14.3 32-32l0-128-64 0zM128 32a32 32 0 1 0 64 0 32 32 0 1 0 -64 0zm96 48a48 48 0 1 0 96 0 48 48 0 1 0 -96 0z"/><path class="fa-primary" d="M35.1 224C16.5 257 0 297.1 0 334.4c0 37.4 11.9 69.4 32 95.5L32 488c0 13.3 10.7 24 24 24s24-10.7 24-24l0-15c40.4 25.5 91.8 39 144 39s103.6-13.5 144-39l0 15c0 13.3 10.7 24 24 24s24-10.7 24-24l0-58.1c20.1-26.1 32-58.1 32-95.5c0-37.3-16.5-77.4-35.1-110.4l3.1 0c17.7 0 32-14.3 32-32s-14.3-32-32-32l-48 0-144 0-64 0 0 128c0 17.7-14.3 32-32 32s-32-14.3-32-32l0-128-16 0-48 0c-17.7 0-32 14.3-32 32s14.3 32 32 32l3.1 0z"/></svg>

<svg xmlns="http://www.w3.org/2000/svg" viewBox="0 0 448 512"><!--! Font Awesome Pro 6.5.2 by @fontawesome - https://fontawesome.com License - https://fontawesome.com/license (Commercial License) Copyright 2024 Fonticons, Inc. --><defs><style>.fa-secondary{opacity:.4}</style></defs><path class="fa-secondary" d="M128 32a32 32 0 1 1 64 0 32 32 0 1 1 -64 0zm32 128V288c0 17.7-14.3 32-32 32s-32-14.3-32-32V160h64zM272 32a48 48 0 1 1 0 96 48 48 0 1 1 0-96z"/><path class="fa-primary" d="M35.1 224C16.5 257 0 297.1 0 334.4c0 37.4 11.9 69.4 32 95.5V488c0 13.3 10.7 24 24 24s24-10.7 24-24V473c40.4 25.5 91.8 39 144 39s103.6-13.5 144-39v15c0 13.3 10.7 24 24 24s24-10.7 24-24V429.9c20.1-26.1 32-58.1 32-95.5c0-37.3-16.5-77.4-35.1-110.4H416c17.7 0 32-14.3 32-32s-14.3-32-32-32H368 224 160V288c0 17.7-14.3 32-32 32s-32-14.3-32-32V160H80 32c-17.7 0-32 14.3-32 32s14.3 32 32 32h3.1z"/></svg>
